usr/share/icons/biglinux-icons-material/24/actions/kstars_stars.svg

<svg xmlns="http://www.w3.org/2000/svg" viewBox="0 0 24 24">
  <defs id="defs3051">
    <style type="text/css" id="current-color-scheme">
      .ColorScheme-Text {
        color:#363636;
      }
      </style>
  </defs><g transform="translate(1,1)">
 <path 
     style="fill:currentColor;fill-opacity:1;stroke:none" 
     d="M 15 3 L 14.234375 5.1523438 L 12.171875 4.171875 L 13.152344 6.234375 L 11 7 L 13.152344 7.765625 L 12.171875 9.828125 L 14.234375 8.8476562 L 15 11 L 15.765625 8.8476562 L 17.828125 9.828125 L 16.847656 7.765625 L 19 7 L 16.847656 6.234375 L 17.828125 4.171875 L 15.765625 5.1523438 L 15 3 z M 7.6992188 9 L 7.2089844 11.625 L 5.2402344 9.8203125 L 6.1269531 12.337891 L 3.5195312 11.759766 L 5.546875 13.498047 L 3 14.300781 L 5.625 14.792969 L 3.8203125 16.759766 L 6.3378906 15.873047 L 5.7597656 18.480469 L 7.4980469 16.453125 L 8.3007812 19 L 8.7929688 16.376953 L 10.759766 18.179688 L 9.8730469 15.662109 L 12.480469 16.240234 L 10.453125 14.501953 L 13 13.699219 L 10.376953 13.208984 L 12.179688 11.240234 L 9.6621094 12.126953 L 10.240234 9.5195312 L 8.5019531 11.546875 L 7.6992188 9 z "
	 class="ColorScheme-Text"
     />
</g></svg>

<svg xmlns="http://www.w3.org/2000/svg" viewBox="0 0 24 24"><path d="m15 3-.766 2.152-2.062-.98.98 2.062L11 7l2.152.766-.98 2.062 2.062-.98L15 11l.766-2.152 2.062.98-.98-2.062L19 7l-2.152-.766.98-2.062-2.062.98L15 3zM7.7 9l-.491 2.625L5.24 9.82l.887 2.518-2.607-.578 2.027 1.738L3 14.301l2.625.492L3.82 16.76l2.518-.887-.578 2.607 1.738-2.027L8.301 19l.492-2.623 1.967 1.803-.887-2.518 2.607.578-2.027-1.738L13 13.699l-2.623-.49 1.803-1.969-2.518.887.578-2.607-1.738 2.027L7.699 9z" style="fill:currentColor;fill-opacity:1;stroke:none;color:#dedede" transform="translate(1 1)"/></svg>
